<?xml version="1.0" encoding="UTF-8"?>
<map version="1.10" tiledversion="1.12.1" orientation="orthogonal" renderorder="right-down" width="9" height="8" tilewidth="16" tileheight="16" infinite="0" nextlayerid="4" nextobjectid="38">
 <tileset firstgid="1" source="tileset.tsx"/>
 <layer id="1" name="floor" width="9" height="8">
  <data encoding="csv">
0,0,0,0,0,0,0,0,0,
0,0,0,0,0,0,0,0,0,
0,51,51,51,51,51,52,51,0,
0,49,49,50,49,49,49,49,0,
51,49,49,49,49,49,43,49,51,
0,49,49,49,49,50,49,49,0,
0,49,49,49,49,49,49,49,0,
0,0,0,0,0,0,0,0,0
</data>
 </layer>
 <objectgroup id="3" name="walls">
  <object id="3" gid="41" x="16" y="32" width="16" height="16"/>
  <object id="4" gid="41" x="32" y="32" width="16" height="16"/>
  <object id="5" gid="41" x="48" y="32" width="16" height="16"/>
  <object id="6" gid="41" x="80" y="32" width="16" height="16"/>
  <object id="7" gid="41" x="96" y="32" width="16" height="16"/>
  <object id="8" gid="41" x="112" y="32" width="16" height="16"/>
  <object id="9" gid="29" x="64" y="32" width="16" height="16"/>
  <object id="10" gid="3" x="16" y="16" width="16" height="16"/>
  <object id="11" gid="3" x="32" y="16" width="16" height="16"/>
  <object id="12" gid="3" x="48" y="16" width="16" height="16"/>
  <object id="13" gid="3" x="64" y="16" width="16" height="16"/>
  <object id="14" gid="3" x="80" y="16" width="16" height="16"/>
  <object id="15" gid="3" x="96" y="16" width="16" height="16"/>
  <object id="16" gid="3" x="112" y="16" width="16" height="16"/>
  <object id="17" gid="5" x="128" y="96" width="16" height="16"/>
  <object id="18" gid="6" x="0" y="96" width="16" height="16"/>
  <object id="19" gid="18" x="0" y="48" width="16" height="16"/>
  <object id="20" gid="17" x="128" y="48" width="16" height="16"/>
  <object id="21" gid="41" x="128" y="64" width="16" height="16"/>
  <object id="22" gid="41" x="0" y="64" width="16" height="16"/>
  <object id="23" gid="4" x="128" y="16" width="16" height="16"/>
  <object id="24" gid="2" x="0" y="16" width="16" height="16"/>
  <object id="25" gid="14" x="0" y="32" width="16" height="16"/>
  <object id="26" gid="16" x="128" y="32" width="16" height="16"/>
  <object id="27" gid="16" x="128" y="112" width="16" height="16"/>
  <object id="28" gid="14" x="0" y="112" width="16" height="16"/>
  <object id="29" gid="26" x="0" y="128" width="16" height="16"/>
  <object id="30" gid="28" x="128" y="128" width="16" height="16"/>
  <object id="31" gid="27" x="112" y="128" width="16" height="16"/>
  <object id="32" gid="27" x="96" y="128" width="16" height="16"/>
  <object id="33" gid="27" x="80" y="128" width="16" height="16"/>
  <object id="34" gid="27" x="48" y="128" width="16" height="16"/>
  <object id="35" gid="27" x="64" y="128" width="16" height="16"/>
  <object id="36" gid="27" x="32" y="128" width="16" height="16"/>
  <object id="37" gid="27" x="16" y="128" width="16" height="16"/>
 </objectgroup>
</map>
