<?xml version="1.0" encoding="UTF-8"?>
<map version="1.10" tiledversion="1.11.2" orientation="orthogonal" renderorder="right-down" width="8" height="8" tilewidth="16" tileheight="16" infinite="0" nextlayerid="3" nextobjectid="49">
 <tileset firstgid="1" source="tileset1.tsx"/>
 <layer id="1" name="Ground" width="8" height="8">
  <data encoding="csv">
0,0,0,0,0,0,0,0,
0,0,0,0,0,0,0,0,
0,51,51,52,51,51,53,0,
51,49,49,49,49,49,2147483702,51,
50,49,49,49,49,43,49,49,
0,49,50,49,49,49,49,0,
0,49,49,49,49,49,49,0,
0,0,0,0,0,0,0,0
</data>
 </layer>
 <objectgroup id="2" name="Walls">
  <object id="9" gid="2" x="0" y="16" width="16" height="16"/>
  <object id="15" gid="41" x="16" y="32" width="16" height="16"/>
  <object id="16" gid="41" x="32" y="32" width="16" height="16"/>
  <object id="19" gid="41" x="80" y="32" width="16" height="16"/>
  <object id="21" gid="41" x="96" y="32" width="16" height="16"/>
  <object id="22" gid="3" x="16" y="16" width="16" height="16"/>
  <object id="23" gid="3" x="32" y="16" width="16" height="16"/>
  <object id="24" gid="3" x="48" y="16" width="16" height="16"/>
  <object id="25" gid="3" x="80" y="16" width="16" height="16"/>
  <object id="26" gid="3" x="64" y="16" width="16" height="16"/>
  <object id="27" gid="3" x="96" y="16" width="16" height="16"/>
  <object id="28" gid="4" x="112" y="16" width="16" height="16"/>
  <object id="29" gid="27" x="96" y="128" width="16" height="16"/>
  <object id="30" gid="27" x="80" y="128" width="16" height="16"/>
  <object id="31" gid="27" x="64" y="128" width="16" height="16"/>
  <object id="32" gid="27" x="48" y="128" width="16" height="16"/>
  <object id="33" gid="27" x="32" y="128" width="16" height="16"/>
  <object id="34" gid="27" x="16" y="128" width="16" height="16"/>
  <object id="35" gid="28" x="112" y="128" width="16" height="16"/>
  <object id="36" gid="26" x="0" y="128" width="16" height="16"/>
  <object id="38" gid="5" x="112" y="96" width="16" height="16"/>
  <object id="39" gid="6" x="0" y="96" width="16" height="16"/>
  <object id="40" gid="14" x="0" y="112" width="16" height="16"/>
  <object id="41" gid="16" x="112" y="112" width="16" height="16"/>
  <object id="42" gid="18" x="0" y="32" width="16" height="16"/>
  <object id="43" gid="17" x="112" y="32" width="16" height="16"/>
  <object id="45" gid="60" x="0" y="48" width="16" height="16"/>
  <object id="46" gid="58" x="112" y="48" width="16" height="16"/>
  <object id="47" gid="47" x="48" y="32" width="16" height="16"/>
  <object id="48" gid="48" x="64" y="32" width="16" height="16"/>
 </objectgroup>
</map>
