<?xml version="1.0" encoding="UTF-8"?>
<map version="1.10" tiledversion="1.12.0" orientation="orthogonal" renderorder="right-down" width="14" height="11" tilewidth="16" tileheight="16" infinite="0" nextlayerid="2" nextobjectid="1">
 <tileset firstgid="1" source="tileset.tsx"/>
 <layer id="1" name="Tile Layer 1" width="14" height="11">
  <data encoding="csv">
2,3,3,3,3,3,3,3,3,3,3,3,3,4,
14,41,41,41,41,41,41,41,41,41,41,41,41,16,
14,51,51,51,51,51,51,51,51,51,51,51,51,16,
14,49,49,49,49,49,49,49,49,49,49,49,49,16,
14,49,49,49,49,49,49,49,49,49,49,49,49,16,
14,49,49,49,49,49,49,49,49,49,49,49,49,16,
14,49,49,49,49,49,49,49,49,49,49,49,49,16,
14,49,49,49,49,49,49,49,49,49,49,49,49,16,
14,49,49,49,49,49,49,49,49,49,49,49,49,16,
14,49,49,49,49,49,49,49,49,49,49,49,49,16,
26,27,27,27,27,27,27,27,27,27,27,27,27,28
</data>
 </layer>
</map>
