<?xml version="1.0" encoding="UTF-8"?>
<map version="1.10" tiledversion="1.12.1" orientation="orthogonal" renderorder="right-down" width="9" height="8" tilewidth="16" tileheight="16" infinite="0" nextlayerid="6" nextobjectid="39">
 <tileset firstgid="1" source="tileset.tsx"/>
 <layer id="1" name="floor" width="9" height="8">
  <data encoding="csv">
0,0,0,0,0,0,0,0,0,
0,0,0,0,0,0,0,0,0,
0,31,51,51,52,51,52,31,0,
0,49,49,50,49,49,49,49,0,
51,49,49,49,49,49,43,49,51,
0,49,43,49,49,50,49,49,0,
0,49,49,50,49,49,49,49,0,
0,0,0,0,0,0,0,0,0
</data>
 </layer>
 <layer id="4" name="walls" width="9" height="8">
  <properties>
   <property name="solid" type="bool" value="true"/>
  </properties>
  <data encoding="csv">
2,7,3,3,3,3,3,7,4,
14,19,41,29,20,29,41,19,16,
18,0,0,0,0,0,0,0,17,
30,0,0,0,0,0,0,0,30,
0,0,0,0,0,0,0,0,0,
6,0,0,0,0,0,0,0,5,
14,0,0,0,0,0,0,0,16,
26,27,27,27,27,27,27,27,28
</data>
 </layer>
 <objectgroup id="5" name="Spawns">
  <object id="38" name="Player" x="64" y="64">
   <point/>
  </object>
 </objectgroup>
</map>
