<?xml version="1.0" encoding="UTF-8"?>
<map version="1.10" tiledversion="1.12.1" orientation="orthogonal" renderorder="right-down" width="7" height="8" tilewidth="16" tileheight="16" infinite="0" nextlayerid="3" nextobjectid="1">
 <tileset firstgid="1" source="tileset.tsx"/>
 <layer id="1" name="floor" width="7" height="8">
  <data encoding="csv">
0,0,0,0,0,0,0,
0,0,0,0,0,0,0,
0,52,51,45,51,51,0,
0,49,49,43,49,49,0,
0,49,49,49,50,49,52,
0,49,49,49,49,49,0,
0,49,50,49,49,49,0,
0,0,0,49,0,0,0
</data>
 </layer>
 <layer id="2" name="walls" width="7" height="8">
  <data encoding="csv">
2,3,3,3,3,3,4,
14,15,29,21,29,15,16,
14,66,0,0,0,66,17,
14,77,79,0,77,79,30,
14,0,0,0,0,0,0,
14,0,0,0,0,0,5,
14,0,0,0,0,0,16,
26,27,6,0,5,27,28
</data>
 </layer>
</map>
